X:1424
T:Big John McNeil
T:Lord Ramsey's Reel
T:John McNeil's Reel
C:Peter Milne (1824-1908)
R:reel
H:A version of this is also called "Big John MacNeill"
D:De Dannan: Mist Covered Mountain
D:Begley & Cooney: Meitheal
Z:id:hn-reel-510
M:C|
K:A
A,2CE FECE|AECE FECE|A,2CE FECE|FCEC B,DCB,|
A,2CE FECE|AECE FECE|D2FD CDEC|1 B,A,G,A, B,CDB,:|2 B,A,G,A, B,2cd||
|:eA~A2 eAfA|eA~A2 efga|eA~A2 agfe|dB=GB dGBd|
eA~A2 eAfA|eA~A2 efga|agfe fedc|1 BAGA B2cd:|2 BAGF EDCB,||


